resources/svg/lock-simple-light.svg

<svg xmlns="http://www.w3.org/2000/svg" viewBox="0 0 256 256" fill="currentColor"><path d="M207.99463,82h-38V52a42,42,0,0,0-84,0V82h-38a14.01572,14.01572,0,0,0-14,14V208a14.01572,14.01572,0,0,0,14,14h160a14.01572,14.01572,0,0,0,14-14V96A14.01572,14.01572,0,0,0,207.99463,82Zm-110-30a30,30,0,0,1,60,0V82h-60Zm112,156a2.0026,2.0026,0,0,1-2,2h-160a2.0026,2.0026,0,0,1-2-2V96a2.0026,2.0026,0,0,1,2-2h160a2.0026,2.0026,0,0,1,2,2Z"/></svg>

<svg xmlns="http://www.w3.org/2000/svg" viewBox="0 0 256 256" fill="currentColor"><path d="M208,82H170V52a42,42,0,0,0-84,0V82H48A14,14,0,0,0,34,96V208a14,14,0,0,0,14,14H208a14,14,0,0,0,14-14V96A14,14,0,0,0,208,82ZM98,52a30,30,0,0,1,60,0V82H98ZM210,208a2,2,0,0,1-2,2H48a2,2,0,0,1-2-2V96a2,2,0,0,1,2-2H208a2,2,0,0,1,2,2Z"/></svg>
